public/img/kurse.svg

<svg fill="none" height="167" viewBox="0 0 178 167" width="178" xmlns="http://www.w3.org/2000/svg"><circle cx="88.5" cy="83.5" fill="#3bd4ae" r="83.5"/><g fill="#121328"><path d="m135.138 64.308c.38.1648 1.061-.5088.66-.8097-.516-.387-1.505-.3154-2.107-.3655-1.735-.1505-3.476-.172-5.217-.1935-1.863-.0215-5.583-.6951-7.295.301-.882.5159-.423 1.8488.594 1.2612-.516.301.051.0645.395.0788.458.0215.931-.0286 1.383-.043 1.569-.0358 3.131-.043 4.701-.0645 1.418-.0143 2.837-.0215 4.249-.0645.652-.0215 2.05-.3583 2.637-.1003z"/><path d="m120.885 74.9568c-5.181.0144-10.355.0215-15.536.0359-5.124.0143-10.2407.0501-15.3645.086-3.6977.0286-7.7895-.3727-11.3726.6162-.2293.0574-.5302.5805-.1863.6952 3.5759 1.168 8.0332.5947 11.7668.6162 5.1309.0359 10.2686.0717 15.3996.0789 5.138.0143 10.276.0215 15.422.0358 4.07.0072 8.219.215 12.247-.4801.516-.086 1.096-1.0606.322-1.2039-4.149-.7883-8.499-.4873-12.698-.4802z"/><path d="m75.0146 75.265c1.7055-.3512 3.4182-.817 5.1811-1.3258 2.4866-.7309 6.514-2.3504 5.4677-5.7328-.2651-.8456-.8456-1.6124-1.6267-2.2932 1.9062-1.1967 3.5114-3.5544 4.5362-5.6684-.7381 3.1101 1.082 6.8222 4.0201 8.1264 3.2033 1.4189 6.772.0287 8.85-2.587.036-.0501.072-.1003.108-.1433.25.7238.645 1.4261 1.268 2.0997 5.274 5.7615 12.971.5231 16.64-4.271 4.514-5.8977 9.609-17.4208 4.737-24.3791-3.419-4.8801-10.492-4.4071-14.942-.9961-.021-.7166-.093-1.426-.229-2.1355-.767-3.9127-3.712-6.9081-7.811-6.9583-4.0275-.0501-7.5389 2.8307-9.6242 6.0697-.0143.0215-.0215.043-.0358.0645-1.899-4.6006-6.8437-6.8078-11.7811-5.4677-3.1173.8456-7.1518 3.8697-8.8071 7.3811-2.1929-2.5512-5.4463-3.8912-9.1583-3.2248-11.0143 1.9635-11.3798 12.1179-9.6742 21.2618-4.1635-.6091-8.7642-.2293-12.8919-.3368-3.6547-.1003-8.2338-.8097-11.824.3727-.7023-2.0854-3.4541-.3583-3.8195 1.2397-3.6189 1.7844-6.8437 4.2925-10.3264 6.3205-.9173.5375-1.8417 1.0463-2.7733 1.5551-2.85208 1.4833-5.70419 2.9739-8.5563 4.4644-.17915.0932-.34397.2222-.49446.3727-.34397.1863-.687942.3654-1.024749.5589-.41563353.2365-.523125.8385-.3296404 1.1609-.1074915.2652-.0644951.5518.2579794.7453 8.21235 4.9518 16.42467 9.7746 24.50807 14.9556.387.2509.8456.1004 1.2039-.2221.0788.0287.1576.043.2651.043 6.2775-.2652 12.7342.4156 18.9974-.0143 2.7876 3.8052 7.3094 6.3706 12.1967 7.0514-.6951 2.4437-2.2144 4.7726-2.8736 7.2238-.6163 2.329-.903 4.708-1.2469 7.087-.8815 6.113-2.5153 12.096-3.4541 18.202-.2508 1.619 2.028.845 2.2788-.33 1.2326-5.79 1.8489-11.695 3.0814-17.492.602-2.802 1.2183-5.676 2.2717-8.3416 1.0534-2.6658 2.6013-4.873 3.3609-7.6534.2293-.8313.0788-1.6052-.8743-1.813-6.3205-1.3759-12.7126-5.0521-13.8449-11.9889-1.4117-8.6925 7.1231-12.6912 14.3179-13.6514 6.0338-.8026 12.254-.7095 17.6429 2.4293 1.2684.7381 3.8697 1.684 2.8808 3.3824-.4443.7596-4.5218 1.4762-5.2957 1.641-2.974.6234-6.0912.7954-9.1153.9316-1.0105.043-2.544 2.329-1.0749 2.7446 8.3055 2.3576 16.3172 8.0475 17.3491 17.1628.2006 1.7557 2.4866.3655 2.6873-.7166.8742-4.744-.8958-9.5524-4.3498-12.8846-1.9062-1.8417-4.0059-3.0886-6.2489-4.0202zm46.1854-30.1263c.674 2.9954-.408 6.1127-1.29 8.9433-.982 3.1244-1.97 6.4351-3.705 9.2299-1.992 3.2033-5.116 5.6827-9.058 4.6508-3.74-.9746-3.984-3.8052-3.26-6.6788.294-.7739.552-1.5765.788-2.3863.05-.129.1-.2651.158-.3941 1.741-4.314 3.253-8.6208 3.375-13.1785.244-.9172.466-1.8345.645-2.7661 1.978-.9961 3.726-2.286 6.134-2.243 3.067.0573 5.525 1.7915 6.213 4.8228zm-24.6943-10.4482c2.974-1.9492 6.4993-.1433 7.4673 3.0098.853 2.7804.036 5.8619-.588 8.6136-.781 3.4326-1.634 6.8508-2.429 10.2762-.738 3.1889-1.204 10.5629-6.3779 8.7642-3.017-1.0535-3.4971-4.2854-5.4821-6.2202 0-.0215 0-.043 0-.0645.1577-.3941.301-.7811.4085-1.1179 1.0749-3.4469 1.6697-7.1375 2.243-10.699.3296-2.0423.6664-4.2423.7094-6.4137.8241-2.4006 1.9635-4.7798 4.0488-6.1485zm-64.2799 22.6449c2.4508.0072 4.8945.0072 7.3453-.0215 4.2137-.0502 8.757.344 12.9491-.3153.4658 2.1427 1.0176 4.185 1.5336 6.0052-.9603.3655-1.899.7811-2.7948 1.254-3.8625-.3798-7.8039-.1863-11.6807-.1791-3.8124.0072-8.0906-.3726-11.8456.4228-.0072-.3081-.0072-.6091-.0143-.9173-.0287-2.114.2078-4.3426.0286-6.4781 1.4261.3583 2.9453.2221 4.4788.2293zm-17.6716 7.1589c-.0071-.4156-.1361-.7022-.3368-.8957 3.0313-1.6124 6.1915-3.06 9.0436-4.9661-.4156 3.9843-.0071 8.3055 0 12.2325.0072 3.9342-.3009 8.1908.6163 12.0749-3.54-2.329-7.1231-4.8801-10.8136-7.1661.6019-1.8274 1.2182-3.3251 1.3902-5.3459.1577-1.9707.129-3.9557.1003-5.9336zm12.0033 20.3732c-.043-.1218-.1219-.2364-.2365-.3296.1863-.1791.3296-.3798.3798-.5589.6664-2.286.9244-4.6437 1.0319-7.0228 2.329.4443 5.0091.1218 7.2664.1433 2.501.0215 5.0521.2795 7.4814-.2508-.1505 2.9381.5518 5.6182 1.856 7.9329-5.8188-.6307-12.0032-.0072-17.779.0859zm16.1093-9.7172c-2.5869-.6163-5.568-.1791-8.1765-.1576-2.2143.0215-4.5289-.1505-6.7074.2508.0286-1.5909.0143-3.1889.0215-4.7655.0071-1.6697-.0144-3.3322-.0502-5.0019 3.7335.8313 8.0189.3583 11.7882.3655 3.06.0071 6.1557.1003 9.23-.043-3.103 2.2286-5.4248 5.3029-6.1056 9.3517zm18.9472-13.9452c-1.641.1791-3.3251.4945-4.9804.9531 0-.0359 0-.0717-.0072-.1003-.8169-4.7942-1.7987-9.6886-1.9348-14.5544-.086-3.0957.0931-5.8332 2.5726-7.9687 1.9707-1.6984 5.0951-2.5296 7.6104-1.684 4.4358 1.5049 5.2456 6.7218 5.5107 10.7276.2867 4.314 1.0104 8.3772 1.6124 12.6267-3.4326-.4873-6.944-.3798-10.3837 0zm13.6299.6593c-.7811-.2078-1.5693-.3727-2.3576-.5088 0-.0072 0-.0072 0-.0144-.559-4.0273.0573-7.897.7381-11.8455.473-2.7518.4658-5.4606-.344-8.155-.0573-.1792-.1218-.3512-.1791-.5232.7452-1.4547 1.2469-3.0527 2.3791-4.271 1.6339-1.7628 4.2208-2.7589 6.6215-2.4006 5.5179.8169 6.2632 5.7329 5.9765 10.4338-.2651 4.3427-.7094 8.9792-1.7915 13.2-.7453 2.8664-2.544 4.6365-4.2853 6.7146-2.2717-1.2899-5.0378-2.1713-6.7577-2.6299z"/><path d="m175.763 65.9131c-3.325-6.7218-11.459-9.2657-18.775-9.1726.594-.7022.781-1.727-.23-1.7341-.673 0-1.354-.0001-2.035.0071-9.602 0-19.227-.1075-28.815.4156-.652.0215-1.275 1.3903-.38 1.4404 3.576.2007 7.167.3225 10.75.3942l.996 27.0807c-5.074.0788-10.148.2221-15.157.2221-5.969 0-11.931.0072-17.901.0072-5.6966 0-11.9239-.688-17.535.3726-.7094.129-1.512 1.4476-.4443 1.6769 5.8046 1.2254 12.5407.3654 18.4673.3726h4.264c-.28.1935-.524.4371-.717.6951-2.114 2.8091-.803 6.2704-.745 9.5883.071 4.2778-.488 8.5638-.875 12.8128-.329 3.655-.609 7.317-.637 10.986-.029 3.103-.445 7.223 1.755 9.667.617.673 1.727-.129 1.95-.767 1.089-3.132.451-6.5.566-9.774.129-3.598.516-7.181.895-10.757.739-6.922 1.52-13.8949 1.297-20.8746-.021-.5877-.515-1.2684-1.053-1.4906-.064-.0287-.136-.0573-.201-.086 3.798 0 7.596.0072 11.395.0072 11.745.0071 23.755.7381 35.45-.4658.452-.043.91-.6951.846-1.1251 9.882.5661 22.172-8.7713 16.869-19.499zm-16.769 16.2528c-.136-.0215-.279-.0072-.416.0143-.437-5.4104-.895-17.1126-1.089-22.2866 4.357.1434 8.815 1.3401 12.075 4.0059 9.904 8.0905-.136 19.7211-10.57 18.2664z"/></g></svg>

<svg width="178" height="167" viewBox="0 0 178 167" fill="none" xmlns="http://www.w3.org/2000/svg">
<circle cx="88.5" cy="83.5" r="83.5" fill="#3BD4AE"/>
<path d="M135.138 64.308C135.518 64.4728 136.199 63.7992 135.798 63.4983C135.282 63.1113 134.293 63.1829 133.691 63.1328C131.956 62.9823 130.215 62.9608 128.474 62.9393C126.611 62.9178 122.891 62.2442 121.179 63.2403C120.297 63.7562 120.756 65.0891 121.773 64.5015C121.257 64.8025 121.824 64.566 122.168 64.5803C122.626 64.6018 123.099 64.5517 123.551 64.5373C125.12 64.5015 126.682 64.4943 128.252 64.4728C129.67 64.4585 131.089 64.4513 132.501 64.4083C133.153 64.3868 134.551 64.05 135.138 64.308Z" fill="#121328"/>
<path d="M120.885 74.9568C115.704 74.9712 110.53 74.9783 105.349 74.9927C100.225 75.007 95.1083 75.0428 89.9845 75.0787C86.2868 75.1073 82.195 74.706 78.6119 75.6949C78.3826 75.7523 78.0817 76.2754 78.4256 76.3901C82.0015 77.5581 86.4588 76.9848 90.1924 77.0063C95.3233 77.0422 100.461 77.078 105.592 77.0852C110.73 77.0995 115.868 77.1067 121.014 77.121C125.084 77.1282 129.233 77.336 133.261 76.6409C133.777 76.5549 134.357 75.5803 133.583 75.437C129.434 74.6487 125.084 74.9497 120.885 74.9568Z" fill="#121328"/>
<path d="M75.0146 75.265C76.7201 74.9138 78.4328 74.448 80.1957 73.9392C82.6823 73.2083 86.7097 71.5888 85.6634 68.2064C85.3983 67.3608 84.8178 66.594 84.0367 65.9132C85.9429 64.7165 87.5481 62.3588 88.5729 60.2448C87.8348 63.3549 89.6549 67.067 92.593 68.3712C95.7963 69.7901 99.365 68.3999 101.443 65.7842C101.479 65.7341 101.515 65.6839 101.551 65.6409C101.801 66.3647 102.196 67.067 102.819 67.7406C108.093 73.5021 115.79 68.2637 119.459 63.4696C123.973 57.5719 129.068 46.0488 124.196 39.0905C120.777 34.2104 113.704 34.6834 109.254 38.0944C109.233 37.3778 109.161 36.6684 109.025 35.9589C108.258 32.0462 105.313 29.0508 101.214 29.0006C97.1865 28.9505 93.6751 31.8313 91.5898 35.0703C91.5755 35.0918 91.5683 35.1133 91.554 35.1348C89.655 30.5342 84.7103 28.327 79.7729 29.6671C76.6556 30.5127 72.6211 33.5368 70.9658 37.0482C68.7729 34.497 65.5195 33.157 61.8075 33.8234C50.7932 35.7869 50.4277 45.9413 52.1333 55.0852C47.9698 54.4761 43.3691 54.8559 39.2414 54.7484C35.5867 54.6481 31.0076 53.9387 27.4174 55.1211C26.7151 53.0357 23.9633 54.7628 23.5979 56.3608C19.979 58.1452 16.7542 60.6533 13.2715 62.6813C12.3542 63.2188 11.4298 63.7276 10.4982 64.2364C7.64612 65.7197 4.79401 67.2103 1.9419 68.7008C1.76275 68.794 1.59793 68.923 1.44744 69.0735C1.10347 69.2598 0.759498 69.4389 0.422691 69.6324C0.00705747 69.8689 -0.100434 70.4709 0.0930506 70.7933C-0.0144409 71.0585 0.0285555 71.3451 0.35103 71.5386C8.56338 76.4904 16.7757 81.3132 24.8591 86.4942C25.2461 86.7451 25.7047 86.5946 26.063 86.2721C26.1418 86.3008 26.2206 86.3151 26.3281 86.3151C32.6056 86.0499 39.0623 86.7307 45.3255 86.3008C48.1131 90.106 52.6349 92.6714 57.5222 93.3522C56.8271 95.7959 55.3078 98.1248 54.6486 100.576C54.0323 102.905 53.7456 105.284 53.4017 107.663C52.5202 113.776 50.8864 119.759 49.9476 125.865C49.6968 127.484 51.9756 126.71 52.2264 125.535C53.459 119.745 54.0753 113.84 55.3078 108.043C55.9098 105.241 56.5261 102.367 57.5795 99.7014C58.6329 97.0356 60.1808 94.8284 60.9404 92.048C61.1697 91.2167 61.0192 90.4428 60.0661 90.235C53.7456 88.8591 47.3535 85.1829 46.2212 78.2461C44.8095 69.5536 53.3443 65.5549 60.5391 64.5947C66.5729 63.7921 72.7931 63.8852 78.182 67.024C79.4504 67.7621 82.0517 68.708 81.0628 70.4064C80.6185 71.166 76.541 71.8826 75.7671 72.0474C72.7931 72.6708 69.6759 72.8428 66.6518 72.979C65.6413 73.022 64.1078 75.308 65.5769 75.7236C73.8824 78.0812 81.8941 83.7711 82.926 92.8864C83.1266 94.6421 85.4126 93.2519 85.6133 92.1698C86.4875 87.4258 84.7175 82.6174 81.2635 79.2852C79.3573 77.4435 77.2576 76.1966 75.0146 75.265ZM121.2 45.1387C121.874 48.1341 120.792 51.2514 119.91 54.082C118.928 57.2064 117.94 60.5171 116.205 63.3119C114.213 66.5152 111.089 68.9946 107.147 67.9627C103.407 66.9881 103.163 64.1575 103.887 61.2839C104.181 60.51 104.439 59.7074 104.675 58.8976C104.725 58.7686 104.775 58.6325 104.833 58.5035C106.574 54.1895 108.086 49.8827 108.208 45.325C108.452 44.4078 108.674 43.4905 108.853 42.5589C110.831 41.5628 112.579 40.2729 114.987 40.3159C118.054 40.3732 120.512 42.1074 121.2 45.1387ZM96.5057 34.6905C99.4797 32.7413 103.005 34.5472 103.973 37.7003C104.826 40.4807 104.009 43.5622 103.385 46.3139C102.604 49.7465 101.751 53.1647 100.956 56.5901C100.218 59.779 99.752 67.153 94.5781 65.3543C91.5611 64.3008 91.081 61.0689 89.096 59.1341C89.096 59.1126 89.096 59.0911 89.096 59.0696C89.2537 58.6755 89.397 58.2885 89.5045 57.9517C90.5794 54.5048 91.1742 50.8142 91.7475 47.2527C92.0771 45.2104 92.4139 43.0104 92.4569 40.839C93.281 38.4384 94.4204 36.0592 96.5057 34.6905ZM32.2258 57.3354C34.6766 57.3426 37.1203 57.3426 39.5711 57.3139C43.7848 57.2637 48.3281 57.6579 52.5202 56.9986C52.986 59.1413 53.5378 61.1836 54.0538 63.0038C53.0935 63.3693 52.1548 63.7849 51.259 64.2578C47.3965 63.878 43.4551 64.0715 39.5783 64.0787C35.7659 64.0859 31.4877 63.7061 27.7327 64.5015C27.7255 64.1934 27.7255 63.8924 27.7184 63.5842C27.6897 61.4702 27.9262 59.2416 27.747 57.1061C29.1731 57.4644 30.6923 57.3282 32.2258 57.3354ZM14.5542 64.4943C14.5471 64.0787 14.4181 63.7921 14.2174 63.5986C17.2487 61.9862 20.4089 60.5386 23.261 58.6325C22.8454 62.6168 23.2539 66.938 23.261 70.865C23.2682 74.7992 22.9601 79.0558 23.8773 82.9399C20.3373 80.6109 16.7542 78.0598 13.0637 75.7738C13.6656 73.9464 14.2819 72.4487 14.4539 70.4279C14.6116 68.4572 14.5829 66.4722 14.5542 64.4943ZM26.5575 84.8675C26.5145 84.7457 26.4356 84.6311 26.321 84.5379C26.5073 84.3588 26.6506 84.1581 26.7008 83.979C27.3672 81.693 27.6252 79.3353 27.7327 76.9562C30.0617 77.4005 32.7418 77.078 34.9991 77.0995C37.5001 77.121 40.0512 77.379 42.4805 76.8487C42.33 79.7868 43.0323 82.4669 44.3365 84.7816C38.5177 84.1509 32.3333 84.7744 26.5575 84.8675ZM42.6668 75.1503C40.0799 74.534 37.0988 74.9712 34.4903 74.9927C32.276 75.0142 29.9614 74.8422 27.7829 75.2435C27.8115 73.6526 27.7972 72.0546 27.8044 70.478C27.8115 68.8083 27.79 67.1458 27.7542 65.4761C31.4877 66.3074 35.7731 65.8344 39.5424 65.8416C42.6024 65.8487 45.6981 65.9419 48.7724 65.7986C45.6694 68.0272 43.3476 71.1015 42.6668 75.1503ZM61.614 61.2051C59.973 61.3842 58.2889 61.6996 56.6336 62.1582C56.6336 62.1223 56.6336 62.0865 56.6264 62.0579C55.8095 57.2637 54.8277 52.3693 54.6916 47.5035C54.6056 44.4078 54.7847 41.6703 57.2642 39.5348C59.2349 37.8364 62.3593 37.0052 64.8746 37.8508C69.3104 39.3557 70.1202 44.5726 70.3853 48.5784C70.672 52.8924 71.3957 56.9556 71.9977 61.2051C68.5651 60.7178 65.0537 60.8253 61.614 61.2051ZM75.2439 61.8644C74.4628 61.6566 73.6746 61.4917 72.8863 61.3556C72.8863 61.3484 72.8863 61.3484 72.8863 61.3412C72.3273 57.3139 72.9436 53.4442 73.6244 49.4957C74.0974 46.7439 74.0902 44.0351 73.2804 41.3407C73.2231 41.1615 73.1586 40.9895 73.1013 40.8175C73.8465 39.3628 74.3482 37.7648 75.4804 36.5465C77.1143 34.7837 79.7012 33.7876 82.1019 34.1459C87.6198 34.9628 88.3651 39.8788 88.0784 44.5797C87.8133 48.9224 87.369 53.5589 86.2869 57.7797C85.5416 60.6461 83.7429 62.4162 82.0016 64.4943C79.7299 63.2044 76.9638 62.323 75.2439 61.8644Z" fill="#121328"/>
<path d="M175.763 65.9131C172.438 59.1913 164.304 56.6474 156.988 56.7405C157.582 56.0383 157.769 55.0135 156.758 55.0064C156.085 55.0064 155.404 55.0063 154.723 55.0135C145.121 55.0135 135.496 54.906 125.908 55.4291C125.256 55.4506 124.633 56.8194 125.528 56.8695C129.104 57.0702 132.695 57.192 136.278 57.2637L137.274 84.3444C132.2 84.4232 127.126 84.5665 122.117 84.5665C116.148 84.5665 110.186 84.5737 104.216 84.5737C98.5194 84.5737 92.2921 83.8857 86.681 84.9463C85.9716 85.0753 85.169 86.3939 86.2367 86.6232C92.0413 87.8486 98.7774 86.9886 104.704 86.9958C106.123 86.9958 107.549 86.9958 108.968 86.9958C108.688 87.1893 108.444 87.4329 108.251 87.6909C106.137 90.5 107.448 93.9613 107.506 97.2792C107.577 101.557 107.018 105.843 106.631 110.092C106.302 113.747 106.022 117.409 105.994 121.078C105.965 124.181 105.549 128.301 107.749 130.745C108.366 131.418 109.476 130.616 109.699 129.978C110.788 126.846 110.15 123.478 110.265 120.204C110.394 116.606 110.781 113.023 111.16 109.447C111.899 102.525 112.68 95.5521 112.457 88.5724C112.436 87.9847 111.942 87.304 111.404 87.0818C111.34 87.0531 111.268 87.0245 111.203 86.9958C115.001 86.9958 118.799 87.003 122.598 87.003C134.343 87.0101 146.353 87.7411 158.048 86.5372C158.5 86.4942 158.958 85.8421 158.894 85.4121C168.776 85.9782 181.066 76.6408 175.763 65.9131ZM158.994 82.1659C158.858 82.1444 158.715 82.1587 158.578 82.1802C158.141 76.7698 157.683 65.0676 157.489 59.8936C161.846 60.037 166.304 61.2337 169.564 63.8995C179.468 71.99 169.428 83.6206 158.994 82.1659Z" fill="#121328"/>
</svg>
